svgs/light/farm.svg

<svg xmlns="http://www.w3.org/2000/svg" viewBox="0 0 576 512"><!--! Font Awesome Pro 6.6.0 by @fontawesome - https://fontawesome.com License - https://fontawesome.com/license (Commercial License) Copyright 2024 Fonticons, Inc. --><path d="M48 480c-8.8 0-16-7.2-16-16l0-272 123.7 0 17.1-32L32 160l0-48c0-44.2 35.8-80 80-80s80 35.8 80 80l0 12 3-5.7c6.1-11.5 15.6-20.8 27.1-26.7C212.5 39.5 166.9 0 112 0C50.1 0 0 50.1 0 112L0 464c0 26.5 21.5 48 48 48l96 0c-7-9.3-12-20.2-14.4-32L48 480zM380.8 68.1c-8.2-3.6-17.5-3.6-25.7 0l-116.5 51c-6.6 2.9-12 7.9-15.4 14.3L163.8 244.9c-2.5 4.6-3.8 9.8-3.8 15.1l0 204c0 26.5 21.5 48 48 48l320 0c26.5 0 48-21.5 48-48l0-204c0-5.3-1.3-10.4-3.8-15.1L512.7 133.4c-3.4-6.4-8.8-11.4-15.4-14.3l-116.5-51zM368 97.5l116.5 51L544 260l0 204c0 8.8-7.2 16-16 16l-80 0 0-64c0-26.5-21.5-48-48-48l-64 0c-26.5 0-48 21.5-48 48l0 64-80 0c-8.8 0-16-7.2-16-16l0-204 59.5-111.6L368 97.5zM416 480l-96 0 0-64c0-8.8 7.2-16 16-16l64 0c8.8 0 16 7.2 16 16l0 64zM336 224l64 0 0 64-64 0 0-64zm0-32c-17.7 0-32 14.3-32 32l0 64c0 17.7 14.3 32 32 32l64 0c17.7 0 32-14.3 32-32l0-64c0-17.7-14.3-32-32-32l-64 0z"/></svg>

<svg xmlns="http://www.w3.org/2000/svg" viewBox="0 0 576 512"><!--! Font Awesome Pro 6.4.0 by @fontawesome - https://fontawesome.com License - https://fontawesome.com/license (Commercial License) Copyright 2023 Fonticons, Inc. --><path d="M48 480c-8.8 0-16-7.2-16-16V192H155.7l17.1-32H32V112c0-44.2 35.8-80 80-80s80 35.8 80 80v12l3-5.7c6.1-11.5 15.6-20.8 27.1-26.7C212.5 39.5 166.9 0 112 0C50.1 0 0 50.1 0 112V464c0 26.5 21.5 48 48 48h96c-7-9.3-12-20.2-14.4-32H48zM380.8 68.1c-8.2-3.6-17.5-3.6-25.7 0l-116.5 51c-6.6 2.9-12 7.9-15.4 14.3L163.8 244.9c-2.5 4.6-3.8 9.8-3.8 15.1V464c0 26.5 21.5 48 48 48H528c26.5 0 48-21.5 48-48V260c0-5.3-1.3-10.4-3.8-15.1L512.7 133.4c-3.4-6.4-8.8-11.4-15.4-14.3l-116.5-51zM368 97.5l116.5 51L544 260V464c0 8.8-7.2 16-16 16H448V416c0-26.5-21.5-48-48-48H336c-26.5 0-48 21.5-48 48v64H208c-8.8 0-16-7.2-16-16V260l59.5-111.6L368 97.5zM416 480H320V416c0-8.8 7.2-16 16-16h64c8.8 0 16 7.2 16 16v64zM336 224h64v64H336V224zm0-32c-17.7 0-32 14.3-32 32v64c0 17.7 14.3 32 32 32h64c17.7 0 32-14.3 32-32V224c0-17.7-14.3-32-32-32H336z"/></svg>
